X:126
T:AIR XIII. Katharine Ogie.
O:england
B:Joseph Mitchell: "The Highland Fair" (1731)
M:C|
L:1/8
K:AMin
A| E2  A2  A2(GA)| B2   A2  A2(Bc)| d3   e  (dB)(AG)| G3A  B2(AG)|
E2  A2  A2(GA)| B2  (AG) g3  a |(ba)(ge) (ge)(dB)| A4   e3   ||
d|(cd)(ef) g3  a |(ge) (dB) g3  d | B2  g2  (dB)(AG)|(G3A) B3  B |
c2 (Bc) d2(cd)| e2  (de) g3  a |(ba)(ge) (ge)(dB)| A4   e3   |]
